public/logo.svg

<svg fill="none" height="50" viewBox="0 0 84 50" width="84" xmlns="http://www.w3.org/2000/svg"><path clip-rule="evenodd" d="m16.8179 3.27151c-1.5032-2.04791-3.9828-3.27151-6.8094-3.27151h-.05136c-2.81369 0-5.29333 1.17208-6.80938 3.27151-.97644 1.31375-1.65738 2.82071-1.65738 6.14374v10.23955h2.58243v-10.03347c0-2.67903.48822-3.79959 1.06637-4.58527 1.06637-1.55847 2.81369-2.48583 4.8565-2.48583 2.04282 0 3.73872.92736 4.85652 2.48583.5396.78568 1.0664 1.90624 1.0664 4.58527v10.03347h2.5824v-10.23955c-.0514-3.31015-.681-4.86863-1.6959-6.14374zm45.5457 17.40089h-2.5695v28.9026h2.5695zm-24.1539 11.8366.3854-2.4343h-.1028c-.2441-.0515-1.0664-.103-1.4133-.103-2.6723 0-4.7665 1.2622-5.8329 2.679v-2.2411h-2.5824v19.1525h2.5824v-12.9572c1.015-2.4344 3.3533-4.0959 5.7815-4.0959.5397 0 .9251 0 1.1178.0516l.0514-.0516zm-28.0085 14.9665c2.1456 0 4.0857-.8887 5.6916-2.5888h-.0128l.1028-.0516 1.8501 1.7517-.1028.1031c-1.8887 2.0865-4.6124 3.3101-7.5289 3.3101-2.67234 0-5.19052-.9274-7.09201-2.679-1.99142-1.8547-3.10919-4.4436-3.10919-7.3158 0-5.6028 4.32974-9.9949 9.86718-9.9949 2.87792 0 5.30622.9789 7.29762 2.9753l.1028.103-1.6574 1.8547-.1028-.103c-1.606-1.5585-3.546-2.3828-5.64022-2.3828-4.03424 0-7.2976 3.3102-7.2976 7.509 0 4.1989 3.3533 7.509 7.63162 7.509zm11.0364-17.0659h2.5825v19.1525h-2.5825zm27.6101 17.0659c2.1456 0 4.0856-.8887 5.6916-2.5888h-.0128l.1027-.0516 1.8501 1.7517-.1028.1031c-1.8886 2.0865-4.6123 3.3101-7.5288 3.3101-2.6724 0-5.1906-.9274-7.0921-2.679-1.9914-1.8547-3.1091-4.4436-3.1091-7.3158 0-5.6028 4.3297-9.9949 9.8671-9.9949 2.878 0 5.3062.9789 7.2976 2.9753l.1028.103-1.6574 1.8547-.1027-.103c-1.606-1.5585-3.5461-2.3828-5.6403-2.3828-4.0342 0-7.2976 3.3102-7.2976 7.509 0 4.1989 3.3533 7.509 7.6317 7.509zm17.1775-7.509c0-5.7058 3.9314-9.9948 9.1348-9.9948l-.0128.0257c5.1134 0 8.9036 4.0443 8.8522 9.3509v.0001c0 .1417 0 .4379-.0514.8242v.103h-15.3661c.2441 4.2376 3.1092 7.2128 7.0021 7.2128 2.3897 0 4.4711-.9789 5.9357-2.7821l.1028-.103 1.7987 1.7517-.0514.103c-1.7473 2.1896-4.6638 3.5034-7.7729 3.5034-5.5375 0-9.5717-4.2891-9.5717-9.9949zm9.1348-7.509c-3.1092 0-5.5888 2.151-6.3725 5.4611h.0128 12.5396c-.5397-3.22-3.0707-5.4611-6.1799-5.4611zm-42.7833-32.4575c5.486 0 9.8158 4.39206 9.8158 9.99484 0 5.60276-4.3298 9.99486-9.8158 9.99486-5.4861 0-9.8158-4.3921-9.8158-9.99486 0-5.60278 4.3297-9.99484 9.8158-9.99484zm-.0129 17.5039c4.1371 0 7.2462-3.22 7.2462-7.50906 0-4.2375-3.1091-7.50901-7.2462-7.50901-4.137 0-7.2462 3.21999-7.2462 7.50901 0 4.28906 3.1092 7.50906 7.2462 7.50906zm20.5309-2.151-6.8608-14.863453-.0514-.05152h-2.8137l8.8908 19.152473h1.6574l8.7494-19.010794.1028-.141679h-2.8137zm20.4666 4.6368c-2.0942 0-3.9957-.5796-5.6916-1.8032-2.5824-1.8032-4.0856-4.7785-4.0856-8.19166 0-3.06543 1.3105-5.93766 3.546-7.84389 1.6574-1.352394 3.8929-2.1380716 6.077-2.1380716 2.6339 0 5.1135 1.0175116 6.8094 2.8207116v-2.434313h2.531v19.152523h-2.531v-2.5374c-1.5032 1.8547-3.9828 2.9753-6.6552 2.9753zm-4.5224-15.9454c-1.6446 1.4168-2.621 3.56775-2.621 5.95054l-.0129-.01287c0 2.58883 1.0664 4.86863 2.9679 6.09223 1.3105.8758 2.7109 1.3653 4.1756 1.3653 2.6723 0 5.1134-1.507 6.6166-4.0443v-7.21282c-.8736-1.50696-3.3918-3.74807-6.6552-3.74807-1.606 0-3.212.59248-4.471 1.60999z" fill="#000" fill-rule="evenodd"/></svg>

<svg width="84" height="50" viewBox="0 0 84 50" fill="none" xmlns="http://www.w3.org/2000/svg">
<path fill-rule="evenodd" clip-rule="evenodd" d="M16.8179 3.27151C15.3147 1.2236 12.8351 0 10.0085 0H9.95714C7.14345 0 4.66381 1.17208 3.14776 3.27151C2.17132 4.58526 1.49038 6.09222 1.49038 9.41525V19.6548H4.07281V9.62133C4.07281 6.9423 4.56103 5.82174 5.13918 5.03606C6.20555 3.47759 7.95287 2.55023 9.99568 2.55023C12.0385 2.55023 13.7344 3.47759 14.8522 5.03606C15.3918 5.82174 15.9186 6.9423 15.9186 9.62133V19.6548H18.501V9.41525C18.4496 6.1051 17.82 4.54662 16.8051 3.27151H16.8179ZM62.3636 20.6724H59.7941V49.575H62.3636V20.6724ZM38.2097 32.509L38.5951 30.0747H38.4923C38.2482 30.0232 37.4259 29.9717 37.079 29.9717C34.4067 29.9717 32.3125 31.2339 31.2461 32.6507V30.4096H28.6637V49.5621H31.2461V36.6049C32.2611 34.1705 34.5994 32.509 37.0276 32.509C37.5673 32.509 37.9527 32.509 38.1454 32.5606L38.1968 32.509H38.2097ZM10.2012 47.4755C12.3468 47.4755 14.2869 46.5868 15.8928 44.8867H15.88L15.9828 44.8351L17.8329 46.5868L17.7301 46.6899C15.8414 48.7764 13.1177 50 10.2012 50C7.52886 50 5.01068 49.0726 3.10919 47.321C1.11777 45.4663 0 42.8774 0 40.0052C0 34.4024 4.32974 30.0103 9.86718 30.0103C12.7451 30.0103 15.1734 30.9892 17.1648 32.9856L17.2676 33.0886L15.6102 34.9433L15.5074 34.8403C13.9014 33.2818 11.9614 32.4575 9.86718 32.4575C5.83294 32.4575 2.56958 35.7677 2.56958 39.9665C2.56958 44.1654 5.92288 47.4755 10.2012 47.4755ZM21.2376 30.4096H23.8201V49.5621H21.2376V30.4096ZM48.8477 47.4755C50.9933 47.4755 52.9333 46.5868 54.5393 44.8867H54.5265L54.6292 44.8351L56.4793 46.5868L56.3765 46.6899C54.4879 48.7764 51.7642 50 48.8477 50C46.1753 50 43.6571 49.0726 41.7556 47.321C39.7642 45.4663 38.6465 42.8774 38.6465 40.0052C38.6465 34.4024 42.9762 30.0103 48.5136 30.0103C51.3916 30.0103 53.8198 30.9892 55.8112 32.9856L55.914 33.0886L54.2566 34.9433L54.1539 34.8403C52.5479 33.2818 50.6078 32.4575 48.5136 32.4575C44.4794 32.4575 41.216 35.7677 41.216 39.9665C41.216 44.1654 44.5693 47.4755 48.8477 47.4755ZM66.0252 39.9665C66.0252 34.2607 69.9566 29.9717 75.16 29.9717L75.1472 29.9974C80.2606 29.9974 84.0508 34.0417 83.9994 39.3483V39.3484C83.9994 39.4901 83.9994 39.7863 83.948 40.1726V40.2756H68.5819C68.826 44.5132 71.6911 47.4884 75.584 47.4884C77.9737 47.4884 80.0551 46.5095 81.5197 44.7063L81.6225 44.6033L83.4212 46.355L83.3698 46.458C81.6225 48.6476 78.706 49.9614 75.5969 49.9614C70.0594 49.9614 66.0252 45.6723 66.0252 39.9665ZM75.16 32.4575C72.0508 32.4575 69.5712 34.6085 68.7875 37.9186H68.8003H81.3399C80.8002 34.6986 78.2692 32.4575 75.16 32.4575ZM32.3767 0C37.8627 0 42.1925 4.39206 42.1925 9.99484C42.1925 15.5976 37.8627 19.9897 32.3767 19.9897C26.8906 19.9897 22.5609 15.5976 22.5609 9.99484C22.5609 4.39206 26.8906 0 32.3767 0ZM32.3638 17.5039C36.5009 17.5039 39.61 14.2839 39.61 9.99484C39.61 5.75734 36.5009 2.48583 32.3638 2.48583C28.2268 2.48583 25.1176 5.70582 25.1176 9.99484C25.1176 14.2839 28.2268 17.5039 32.3638 17.5039ZM52.8947 15.3529L46.0339 0.489447L45.9825 0.437927H43.1688L52.0596 19.5904H53.717L62.4664 0.579606L62.5692 0.437927H59.7555L52.8947 15.3529ZM73.3613 19.9897C71.2671 19.9897 69.3656 19.4101 67.6697 18.1865C65.0873 16.3833 63.5841 13.408 63.5841 9.99484C63.5841 6.92941 64.8946 4.05718 67.1301 2.15095C68.7875 0.798556 71.023 0.0128784 73.2071 0.0128784C75.841 0.0128784 78.3206 1.03039 80.0165 2.83359V0.399277H82.5475V19.5518H80.0165V17.0144C78.5133 18.8691 76.0337 19.9897 73.3613 19.9897ZM68.8389 4.0443C67.1943 5.4611 66.2179 7.61205 66.2179 9.99484L66.205 9.98197C66.205 12.5708 67.2714 14.8506 69.1729 16.0742C70.4834 16.95 71.8838 17.4395 73.3485 17.4395C76.0208 17.4395 78.4619 15.9325 79.9651 13.3952V6.18238C79.0915 4.67542 76.5733 2.43431 73.3099 2.43431C71.7039 2.43431 70.0979 3.02679 68.8389 4.0443Z" fill="black"/>
</svg>
